X: 20955
T: JP Daly's
R: jig
M: 6/8
K: Amajor
|:~A3 cBA|FAF ECB,|AcA CEA|cec Bec|
~A3 cBA|FAF ECB,|ACE Adc|1 BGE A2E:|2 BGE A3||
eAA fAA|eAc BAF|EAc eae|cec BAF|
eAA fAA|eAc BAF|EAc eae|c2B A3|
eAA fAA|eAc BAF|EAc eae|cec BAF|
EAA cBA|FAF ECB,|ACE Adc|BGE A2E||

